flaticon/interaction/placeholder-17.svg

<svg xmlns="http://www.w3.org/2000/svg" width="32" height="32" viewBox="0 0 24 24">
    <path d="M22.253906 23.128906L21.816406 23.128906 21.816406 22.097656C21.816406 20.554688 21.011719 19.152344 19.710938 18.328125 21.011719 17.5 21.816406 16.101562 21.816406 14.558594L21.816406 13.527344 22.253906 13.527344C22.496094 13.527344 22.691406 13.332031 22.691406 13.089844 22.691406 12.847656 22.496094 12.65625 22.253906 12.65625L14.398438 12.65625C14.160156 12.65625 13.964844 12.847656 13.964844 13.089844 13.964844 13.332031 14.160156 13.527344 14.398438 13.527344L14.835938 13.527344 14.835938 14.558594C14.835938 16.097656 15.640625 17.5 16.941406 18.328125 15.640625 19.152344 14.835938 20.554688 14.835938 22.097656L14.835938 23.128906 14.398438 23.128906C14.160156 23.128906 13.964844 23.324219 13.964844 23.5625 13.964844 23.804688 14.160156 24 14.398438 24L22.253906 24C22.496094 24 22.691406 23.804688 22.691406 23.5625 22.691406 23.324219 22.496094 23.128906 22.253906 23.128906zM15.710938 14.558594L15.710938 13.527344 20.945312 13.527344 20.945312 14.558594C20.945312 16.003906 20.058594 17.304688 18.675781 17.890625L17.976562 17.890625C16.597656 17.304688 15.710938 16.003906 15.710938 14.558594zM15.710938 23.128906L15.710938 22.097656C15.710938 20.648438 16.597656 19.347656 17.976562 18.761719L18.675781 18.761719C20.058594 19.347656 20.945312 20.648438 20.945312 22.097656L20.945312 23.128906zM9.910156 5.238281C8.222656 5.238281 6.855469 6.605469 6.855469 8.289062 6.855469 9.976562 8.222656 11.34375 9.910156 11.34375 11.59375 11.34375 12.964844 9.976562 12.964844 8.289062 12.964844 6.605469 11.59375 5.238281 9.910156 5.238281zM9.910156 10.472656C8.707031 10.472656 7.726562 9.492188 7.726562 8.289062 7.726562 7.085938 8.707031 6.109375 9.910156 6.109375 11.113281 6.109375 12.089844 7.085938 12.089844 8.289062 12.089844 9.492188 11.113281 10.472656 9.910156 10.472656zM9.910156 10.472656"/>
    <path d="M 11 20.679688 L 9.695312 22.386719 L 3.679688 13.703125 C 1.414062 10.675781 1.738281 5.707031 4.378906 3.066406 C 5.792969 1.652344 7.675781 0.871094 9.675781 0.871094 C 11.679688 0.871094 13.5625 1.652344 14.976562 3.066406 C 16.910156 5 17.664062 8.28125 16.851562 11.230469 C 16.789062 11.460938 16.921875 11.703125 17.15625 11.765625 C 17.386719 11.828125 17.628906 11.695312 17.691406 11.460938 C 18.585938 8.21875 17.742188 4.597656 15.59375 2.449219 C 14.015625 0.871094 11.914062 0 9.675781 0 C 7.441406 0 5.339844 0.871094 3.761719 2.449219 C 0.835938 5.375 0.472656 10.878906 2.972656 14.210938 L 9.660156 23.867188 L 11.691406 21.210938 C 11.839844 21.019531 11.800781 20.746094 11.609375 20.597656 C 11.417969 20.453125 11.144531 20.488281 11 20.679688 Z M 11 20.679688"/>
</svg>

<svg xmlns="http://www.w3.org/2000/svg" width="32" height="32" viewBox="0 0 24 24">
    <path d="M22.254 23.129h-.438v-1.031c0-1.543-.804-2.946-2.105-3.77 1.3-.828 2.105-2.226 2.105-3.77v-1.03h.438a.437.437 0 0 0 .437-.438.433.433 0 0 0-.437-.434h-7.856a.436.436 0 0 0 0 .871h.438v1.032c0 1.539.805 2.941 2.105 3.77-1.3.823-2.105 2.226-2.105 3.769v1.03h-.438a.435.435 0 0 0 0 .872h7.856a.436.436 0 0 0 0-.871zm-6.543-8.57v-1.032h5.234v1.032c0 1.445-.886 2.746-2.27 3.332h-.698c-1.38-.586-2.266-1.887-2.266-3.332zm0 8.57v-1.031c0-1.45.887-2.75 2.266-3.336h.699c1.383.586 2.27 1.886 2.27 3.336v1.03zm0 0M9.91 5.238a3.053 3.053 0 1 0 0 6.106 3.057 3.057 0 0 0 3.055-3.055A3.056 3.056 0 0 0 9.91 5.24zm0 5.235a2.187 2.187 0 0 1-2.183-2.184 2.18 2.18 0 1 1 2.184 2.184zm0 0"/>
    <path d="M11 20.68l-1.305 1.707-6.015-8.684c-2.266-3.027-1.942-7.996.699-10.637A7.447 7.447 0 0 1 9.676.871c2.004 0 3.886.781 5.3 2.195C16.91 5 17.665 8.281 16.853 11.23a.435.435 0 1 0 .84.23c.894-3.241.05-6.862-2.098-9.01A8.314 8.314 0 0 0 9.676 0a8.312 8.312 0 0 0-5.914 2.45c-2.926 2.925-3.29 8.429-.79 11.76l6.688 9.657 2.031-2.656A.437.437 0 0 0 11 20.68zm0 0"/>
</svg>
